logo/red-knockout-square.svg

<?xml version="1.0" encoding="UTF-8" standalone="no"?>
<svg width="100px" height="100px" viewBox="0 0 100 100" version="1.1" xmlns="http://www.w3.org/2000/svg" xmlns:xlink="http://www.w3.org/1999/xlink" xmlns:sketch="http://www.bohemiancoding.com/sketch/ns">
    <title>red-knockout-square</title>
    <description>Created with Sketch (http://www.bohemiancoding.com/sketch)</description>
    <defs></defs>
    <g id="Page-1" stroke="none" stroke-width="1" fill="none" fill-rule="evenodd" sketch:type="MSPage">
        <path d="M261.417345,82.6666667 L353.515765,82.6666667 L353.515765,118.54945 L336.36258,118.54945 L355.175278,143.389348 C359.046492,148.35264 361.53723,152.495553 361.53723,152.495553 L362.08942,152.495553 C362.08942,152.776826 364.298187,148.633913 368.17234,143.389348 L386.43872,118.54945 L369.837726,118.54945 L369.837726,82.6666667 L463.111111,82.6666667 L463.111111,118.55238 L442.539036,118.55238 L394.116533,182.582946 L441.71075,244.120147 L462.567732,244.120147 L462.567732,280 L364.862128,280 L364.862128,244.120147 L382.57338,244.120147 L362.647486,218.175667 C358.773335,213.203585 356.285534,208.791119 356.285534,208.791119 L355.730405,208.791119 C355.178215,208.791119 353.245545,212.928172 349.644549,218.175667 L331.105012,244.120147 L348.258197,244.120147 L348.258197,280 L255.114048,280 L255.111111,280 L255.111111,244.123077 L274.995883,244.123077 L323.694482,179.269202 L277.210524,118.54945 L262.222222,118.54945 L262.222222,118.593743 L238.350727,118.593743 L238.350727,204.804647 C238.350727,224.415369 232.273195,243.495119 222.056024,256.203219 C206.869524,274.989616 180.630303,283.555556 154.67253,283.555556 C126.501281,283.555556 101.921434,273.607918 87.5646219,257.027544 C75.9607292,243.767939 70.9943335,225.524247 70.98847,204.80758 L70.98847,118.593743 L48.8888889,118.593743 L48.8888889,82.6666667 L144.464154,82.6666667 L144.464154,118.593743 L125.91493,118.593743 L125.91493,204.80758 C125.91493,213.643406 127.533259,221.379154 130.089751,226.627258 C134.49325,235.474818 143.534787,240.72879 154.898275,240.72879 C165.56987,240.72879 173.913649,236.310878 179.014905,226.914746 C182.028751,221.106334 183.418404,213.919159 183.418404,204.810514 L183.418404,118.593743 L164.866248,118.593743 L164.866248,82.6666667 L261.417345,82.6666667 L261.417345,82.6666667 Z M0,0 L0,512 L512,512 L512,0 L0,0 Z M62.1911047,405.79548 L96.6684788,405.79548 C100.693033,405.79548 104.10282,405.588786 107.613293,404.439725 C115.147352,401.827153 121.030734,394.516459 121.030734,384.798908 C121.030734,376.447888 116.79803,369.240051 108.955134,366.93997 L108.955134,366.733276 C114.631334,363.809194 118.13987,358.061929 118.13987,350.857031 C118.13987,342.917439 113.908134,336.859643 108.129311,334.249031 C104.515247,332.576867 100.592347,332.055725 95.3276059,332.055725 L62.1911047,332.055725 L62.1911047,340.100133 L71.2741869,340.100133 L71.2741869,397.651153 L62.1911047,397.651153 L62.1911047,405.79548 Z M81.5993916,363.077439 L81.5993916,340.619316 L95.328574,340.619316 C98.4266196,340.619316 100.799529,341.036623 102.86457,342.083806 C105.961647,343.858827 107.614261,347.514663 107.614261,351.79548 C107.614261,358.481194 103.485147,363.076459 96.878565,363.076459 L81.5993916,363.077439 Z M81.5993916,397.231888 L81.5993916,371.64299 L97.9086651,371.64299 C105.548252,371.64299 110.50222,376.654582 110.50222,384.275806 C110.50222,389.813439 107.819506,394.412623 103.586802,396.187643 C101.624383,397.024214 99.145947,397.228949 97.0838105,397.228949 L81.5993916,397.228949 L81.5993916,397.231888 Z M125.233426,405.79548 L150.833932,405.79548 L150.833932,397.963643 L143.091723,397.963643 L143.091723,383.962337 C143.091723,373.626663 147.840446,362.240868 158.990505,362.240868 C160.641182,362.240868 161.878464,362.553357 161.878464,362.553357 L161.878464,352.528214 C161.878464,352.528214 160.640214,352.317602 159.297405,352.317602 C151.246359,352.317602 145.155795,358.377357 142.779982,366.104378 L142.574736,366.104378 C142.574736,366.104378 142.779982,364.53801 142.779982,362.449521 L142.779982,359.107153 C142.779982,354.824378 140.613286,352.944541 136.071745,352.944541 L124.304013,352.944541 L124.304013,360.778337 L130.807972,360.778337 C132.252436,360.778337 133.078259,361.509112 133.078259,363.076459 L133.078259,397.961684 L125.232458,397.961684 L125.232458,405.796459 L125.233426,405.79548 Z M174.36746,342.399235 L184.895006,342.399235 L184.895006,332.057684 L174.36746,332.057684 L174.36746,342.399235 Z M166.417101,405.79548 L192.844397,405.79548 L192.844397,397.963643 L184.585202,397.963643 L184.585202,352.945521 L165.901083,352.945521 L165.901083,360.780296 L174.571738,360.780296 L174.571738,397.965602 L166.416133,397.965602 L166.416133,405.79548 L166.417101,405.79548 Z M248.987758,405.79548 L275.409246,405.79548 L275.409246,397.963643 L267.154892,397.963643 L267.154892,381.040214 C267.154892,369.761194 274.378178,360.98797 284.598825,360.98797 C292.957739,360.98797 294.506761,366.837112 294.506761,374.254582 L294.506761,405.798418 L312.675829,405.798418 L312.675829,397.966582 L304.523129,397.966582 L304.523129,371.9545 C304.523129,358.481194 298.844025,351.690663 286.56221,351.690663 C276.13632,351.690663 269.32546,358.688868 267.053237,363.806255 L266.84896,363.806255 C266.84896,363.806255 267.15586,361.925439 267.15586,359.418663 L267.15586,332.054745 L248.472709,332.054745 L248.472709,339.887561 L257.245986,339.887561 L257.245986,397.962663 L248.989696,397.962663 L248.987758,405.79548 Z M317.703376,386.472051 C317.703376,404.125276 331.018196,406.213766 337.626715,406.213766 C339.794377,406.213766 341.238841,406.006092 341.238841,406.006092 L341.238841,397.549276 C341.238841,397.549276 340.308459,397.651153 338.863028,397.651153 C334.940128,397.651153 327.712,396.29148 327.712,385.529684 L327.712,360.779316 L340.201964,360.779316 L340.201964,352.944541 L327.712,352.944541 L327.712,338.42797 L317.90475,338.42797 L317.90475,352.9465 L308.922354,352.9465 L308.922354,360.781276 L317.698537,360.781276 L317.698537,386.472051 L317.703376,386.472051 Z M398.643689,405.79548 L425.07389,405.79548 L425.07389,397.963643 L416.812757,397.963643 L416.812757,381.250827 C416.812757,370.701602 423.728176,360.98699 434.261531,360.98699 C442.619476,360.98699 444.06878,366.836133 444.06878,374.253602 L444.06878,405.797439 L462.338537,405.797439 L462.338537,397.965602 L454.080308,397.965602 L454.080308,371.953521 C454.080308,358.480214 448.711008,351.689684 436.73803,351.689684 C423.52293,351.689684 417.431397,361.714827 416.401298,364.536051 L416.195084,364.536051 C416.195084,364.536051 416.50392,363.178337 416.50392,361.507153 L416.50392,358.792704 C416.50392,354.927235 414.436944,352.942582 409.897339,352.942582 L398.129607,352.942582 L398.129607,360.777357 L404.529975,360.777357 C405.976375,360.777357 406.805102,361.508133 406.805102,363.0745 L406.805102,397.960704 L398.647561,397.960704 L398.647561,405.792541 L398.643689,405.792541 L398.643689,405.79548 Z M340.503056,379.265194 C340.503056,395.352051 353.092738,407.048378 368.682684,407.048378 C384.273598,407.048378 396.868121,395.349112 396.868121,379.265194 C396.868121,363.286092 384.274565,351.691643 368.682684,351.691643 C353.092738,351.691643 340.503056,363.286092 340.503056,379.265194 Z M350.721765,379.265194 C350.721765,368.300623 358.774747,360.464868 368.682684,360.464868 C378.487998,360.464868 386.644571,368.299643 386.644571,379.265194 C386.644571,390.336541 378.488965,398.274174 368.682684,398.274174 C358.777652,398.273194 350.721765,390.336541 350.721765,379.265194 Z M201.326265,415.612949 L198.021038,423.346827 C203.182188,425.956459 209.583524,427.733439 215.880302,427.733439 C229.094434,427.733439 242.202071,421.047725 242.202071,403.606092 L242.202071,362.869766 C242.202071,361.511072 243.130517,360.780296 244.476231,360.780296 L250.256021,360.780296 L250.256021,352.945521 L239.107898,352.945521 C234.771603,352.945521 233.120925,354.930174 233.120925,358.272541 C233.120925,359.632214 233.326171,360.36397 233.326171,360.36397 L233.120925,360.36397 C230.231998,354.304214 223.006775,351.692623 216.192043,351.692623 C201.638006,351.692623 193.275219,362.972623 193.275219,378.118092 C193.275219,393.366418 202.153056,405.168541 216.60447,405.168541 C224.244057,405.168541 229.198993,401.828133 232.296071,396.605929 L232.501316,396.605929 C232.501316,396.605929 232.19248,398.275153 232.19248,399.947316 L232.19248,404.125276 C232.19248,414.990908 224.760075,419.166908 215.675057,419.166908 C207.82732,419.164949 201.326265,415.612949 201.326265,415.612949 Z M218.563984,396.397276 C209.168193,396.397276 203.491993,388.87401 203.491993,377.910418 C203.491993,367.151561 208.655079,360.464868 217.633602,360.464868 C225.790175,360.464868 232.396757,364.434174 232.396757,378.221929 C232.395789,392.005766 225.790175,396.397276 218.563984,396.397276 Z" id="Rectangle-1-copy-3" fill="#C9003A" sketch:type="MSShapeGroup"></path>
    </g>
</svg>

<?xml version="1.0" encoding="UTF-8" standalone="no"?><!DOCTYPE svg PUBLIC "-//W3C//DTD SVG 1.1//EN" "http://www.w3.org/Graphics/SVG/1.1/DTD/svg11.dtd"><svg width="100%" height="100%" viewBox="0 0 512 512" version="1.1" xmlns="http://www.w3.org/2000/svg" xmlns:xlink="http://www.w3.org/1999/xlink" xml:space="preserve" style="fill-rule:evenodd;clip-rule:evenodd;stroke-linejoin:round;stroke-miterlimit:1.41421;"><path d="M261.417,82.667l92.099,0l0,35.882l-17.153,0l18.812,24.84c3.871,4.964 6.362,9.107 6.362,9.107l0.552,0c0,0.281 2.209,-3.862 6.083,-9.107l18.267,-24.84l-16.601,0l0,-35.882l93.273,0l0,35.885l-20.572,0l-48.423,64.031l47.595,61.537l20.857,0l0,35.88l-97.706,0l0,-35.88l17.711,0l-19.926,-25.944c-3.874,-4.972 -6.362,-9.385 -6.362,-9.385l-0.555,0c-0.552,0 -2.485,4.137 -6.086,9.385l-18.539,25.944l17.153,0l0,35.88l-93.144,0l-0.003,0l0,-35.877l19.885,0l48.698,-64.854l-46.484,-60.72l-14.988,0l0,0.045l-23.871,0l0,86.211c0,19.61 -6.078,38.69 -16.295,51.398c-15.187,18.787 -41.426,27.353 -67.384,27.353c-28.171,0 -52.751,-9.948 -67.107,-26.529c-11.604,-13.259 -16.571,-31.503 -16.577,-52.219l0,-86.214l-22.099,0l0,-35.927l95.575,0l0,35.927l-18.549,0l0,86.214c0,8.835 1.618,16.571 4.175,21.819c4.403,8.848 13.445,14.102 24.808,14.102c10.672,0 19.016,-4.418 24.117,-13.814c3.014,-5.809 4.403,-12.996 4.403,-22.105l0,-86.216l-18.552,0l0,-35.927l96.551,0ZM0,0l0,512l512,0l0,-512l-512,0ZM62.191,405.796l34.477,0c4.025,0 7.435,-0.207 10.945,-1.356c7.534,-2.613 13.418,-9.923 13.418,-19.641c0,-8.351 -4.233,-15.559 -12.076,-17.859l0,-0.207c5.676,-2.924 9.185,-8.671 9.185,-15.876c0,-7.94 -4.232,-13.997 -10.011,-16.608c-3.614,-1.672 -7.537,-2.193 -12.801,-2.193l-33.137,0l0,8.044l9.083,0l0,57.551l-9.083,0l0,8.144ZM81.599,363.077l0,-22.458l13.73,0c3.098,0 5.471,0.418 7.536,1.465c3.097,1.775 4.749,5.431 4.749,9.712c0,6.685 -4.129,11.281 -10.735,11.281l-15.28,0ZM81.599,397.232l0,-25.589l16.31,0c7.639,0 12.593,5.012 12.593,12.633c0,5.537 -2.683,10.137 -6.915,11.912c-1.963,0.836 -4.441,1.041 -6.503,1.041l-15.485,0l0,0.003ZM125.233,405.796l25.601,0l0,-7.832l-7.742,0l0,-14.002c0,-10.335 4.748,-21.721 15.898,-21.721c1.651,0 2.888,0.312 2.888,0.312l0,-10.025c0,0 -1.238,-0.21 -2.581,-0.21c-8.051,0 -14.141,6.059 -16.517,13.786l-0.205,0c0,0 0.205,-1.566 0.205,-3.655l0,-3.342c0,-4.283 -2.167,-6.163 -6.708,-6.163l-11.768,0l0,7.834l6.504,0c1.444,0 2.27,0.731 2.27,2.298l0,34.886l-7.846,0l0,7.834l0.001,-0.001ZM174.368,342.399l10.527,0l0,-10.341l-10.527,0l0,10.341ZM166.417,405.796l26.427,0l0,-7.832l-8.259,0l0,-45.018l-18.684,0l0,7.834l8.671,0l0,37.186l-8.156,0l0,7.829l0.001,0ZM248.988,405.796l26.421,0l0,-7.832l-8.254,0l0,-16.924c0,-11.279 7.223,-20.052 17.444,-20.052c8.359,0 9.908,5.849 9.908,13.267l0,31.543l18.169,0l0,-7.831l-8.153,0l0,-26.012c0,-13.474 -5.679,-20.264 -17.961,-20.264c-10.426,0 -17.236,6.998 -19.509,12.115l-0.204,0c0,0 0.307,-1.881 0.307,-4.387l0,-27.364l-18.683,0l0,7.833l8.773,0l0,58.075l-8.256,0l-0.002,7.832ZM317.703,386.472c0,17.653 13.315,19.742 19.924,19.742c2.167,0 3.612,-0.208 3.612,-0.208l0,-8.457c0,0 -0.931,0.102 -2.376,0.102c-3.923,0 -11.151,-1.359 -11.151,-12.121l0,-24.751l12.49,0l0,-7.834l-12.49,0l0,-14.517l-9.807,0l0,14.519l-8.983,0l0,7.834l8.776,0l0,25.691l0.005,0ZM398.644,405.796l26.43,0l0,-7.832l-8.261,0l0,-16.713c0,-10.549 6.915,-20.264 17.448,-20.264c8.359,0 9.808,5.849 9.808,13.267l0,31.543l18.269,0l0,-7.831l-8.258,0l0,-26.012c0,-13.474 -5.369,-20.264 -17.342,-20.264c-13.215,0 -19.307,10.025 -20.337,12.846l-0.206,0c0,0 0.309,-1.358 0.309,-3.029l0,-2.714c0,-3.866 -2.067,-5.85 -6.607,-5.85l-11.767,0l0,7.834l6.4,0c1.446,0 2.275,0.731 2.275,2.298l0,34.886l-8.157,0l0,7.832l-0.004,0l0,0.003ZM340.503,379.265c0,16.087 12.59,27.783 28.18,27.783c15.591,0 28.185,-11.699 28.185,-27.783c0,-15.979 -12.593,-27.573 -28.185,-27.573c-15.59,0 -28.18,11.594 -28.18,27.573ZM350.722,379.265c0,-10.964 8.053,-18.8 17.961,-18.8c9.805,0 17.962,7.835 17.962,18.8c0,11.072 -8.156,19.009 -17.962,19.009c-9.905,-0.001 -17.961,-7.938 -17.961,-19.009ZM201.326,415.613l-3.305,7.734c5.161,2.609 11.563,4.386 17.859,4.386c13.214,0 26.322,-6.685 26.322,-24.127l0,-40.736c0,-1.359 0.928,-2.09 2.274,-2.09l5.78,0l0,-7.834l-11.148,0c-4.336,0 -5.987,1.984 -5.987,5.327c0,1.359 0.205,2.091 0.205,2.091l-0.205,0c-2.889,-6.06 -10.114,-8.671 -16.929,-8.671c-14.554,0 -22.917,11.28 -22.917,26.425c0,15.248 8.878,27.05 23.329,27.05c7.64,0 12.595,-3.34 15.692,-8.562l0.205,0c0,0 -0.309,1.669 -0.309,3.341l0,4.178c0,10.866 -7.432,15.042 -16.517,15.042c-7.848,-0.002 -14.349,-3.554 -14.349,-3.554ZM218.564,396.397c-9.396,0 -15.072,-7.523 -15.072,-18.487c0,-10.758 5.163,-17.445 14.142,-17.445c8.156,0 14.763,3.969 14.763,17.757c-0.001,13.784 -6.607,18.175 -13.833,18.175Z" style="fill:#b83246;"/></svg>
